X: 6440
T: Castleblaney Piper, The
R: jig
M: 6/8
K: Dmajor
FEF ABc|dAG FED|GBG FGA|BEE E2A|
FEF ABc|dAG FED|afd gec|dAF D3:|
afd gec|dAG FED|GBG FGA|BEE E2^g|
afd gec|dAG FED|afd gec|dAF D3|
afd gec|dAG FED|GBG FGA|BEE E2^g|
aba gec|dAG FED|faf gec|dAF D3||

